;FLAVOR:Marlin
;TIME:8757
;Filament used: 5.78184m
;Layer height: 0.2
;MINX:102.992
;MINY:100.752
;MINZ:0.2
;MAXX:142.697
;MAXY:133.739
;MAXZ:58.2
;Generated with Cura_SteamEngine 5.4.0
M140 S50
M105
M190 S50
M104 S200
M105
M109 S200
M82 ;absolute extrusion mode
; Ender 3 Custom Start G-code
G92 E0 ; Reset Extruder
G28 ; Home all axes
G1 Z2.0 F3000 ; Move Z Axis up little to prevent scratching of Heat Bed
G1 X0.1 Y20 Z0.3 F5000.0 ; Move to start position
G1 X0.1 Y200.0 Z0.3 F1500.0 E15 ; Draw the first line
G1 X0.4 Y200.0 Z0.3 F5000.0 ; Move to side a little
G1 X0.4 Y20 Z0.3 F1500.0 E30 ; Draw the second line
G92 E0 ; Reset Extruder
G1 Z2.0 F3000 ; Move Z Axis up little to prevent scratching of Heat Bed
G1 X5 Y20 Z0.3 F5000.0 ; Move over to prevent blob squish
G92 E0
G92 E0
G1 F2700 E-5
;LAYER_COUNT:291
;LAYER:0
M107
G0 F6000 X107.341 Y105.442 Z0.2
;TYPE:SKIRT
G1 F2700 E0
G1 F1200 X107.667 Y105.137 E0.01485
G1 X108.384 Y104.525 E0.0462
G1 X109.361 Y103.844 E0.08581
G1 X110.309 Y103.259 E0.12286
G1 X110.922 Y102.909 E0.14634
G1 X111.724 Y102.493 E0.17639
G1 X112.306 Y102.212 E0.19789
G1 X113.199 Y101.832 E0.23016
G1 X113.995 Y101.569 E0.25805
G1 X115.351 Y101.176 E0.305
G1 X116.298 Y100.949 E0.33739
G1 X117.191 Y100.815 E0.36743
G1 X118.219 Y100.752 E0.40168
G1 X118.749 Y100.757 E0.41931
G1 X120.025 Y100.8 E0.46178
G1 X122.619 Y100.852 E0.54807
G1 X125.156 Y100.831 E0.63245
G1 X126.435 Y100.786 E0.67502
G1 X127.172 Y100.772 E0.69954
G1 X128.075 Y100.794 E0.72958
G1 X129.123 Y100.914 E0.76466
G1 X130.317 Y101.176 E0.80532
G1 X131.122 Y101.401 E0.83312
G1 X131.804 Y101.607 E0.85682
G1 X132.719 Y101.93 E0.88909
G1 X133.495 Y102.28 E0.9174
G1 X134.542 Y102.805 E0.95636
G1 X135.162 Y103.142 E0.97983
G1 X135.875 Y103.568 E1.00746
G1 X136.392 Y103.896 E1.02782
G1 X137.189 Y104.454 E1.06018
G1 X137.904 Y105.054 E1.09122
G1 X138.195 Y105.32 E1.10434
G1 X139.113 Y106.267 E1.1482
G1 X139.596 Y106.83 E1.17288
G1 X140.195 Y107.596 E1.20522
G1 X140.685 Y108.344 E1.23496
G1 X141.005 Y108.882 E1.25578
G1 X141.455 Y109.724 E1.28753
G1 X141.807 Y110.538 E1.31703
G1 X141.971 Y110.965 E1.33224
G1 X142.279 Y111.891 E1.3647
G1 X142.503 Y112.838 E1.39707
G1 X142.635 Y113.731 E1.42709
G1 X142.697 Y114.908 E1.46629
G1 X142.696 Y115.608 E1.48958
G1 X142.652 Y116.542 E1.52068
G1 X142.555 Y117.31 E1.54642
G1 X142.481 Y117.766 E1.56179
G1 X142.28 Y118.72 E1.59421
G1 X141.995 Y119.65 E1.62657
G1 X141.63 Y120.554 E1.65899
G1 X141.448 Y120.951 E1.67352
G1 X141.001 Y121.818 E1.70596
G1 X140.465 Y122.662 E1.73921
G1 X140.205 Y123.033 E1.75428
G1 X139.713 Y123.679 E1.78129
G1 X139.424 Y124.029 E1.79639
G1 X138.798 Y124.724 E1.8275
G1 X138.21 Y125.282 E1.85446
G1 X137.743 Y125.694 E1.87517
G1 X137.039 Y126.26 E1.90522
G1 X136.225 Y126.816 E1.938
G1 X135.581 Y127.217 E1.96324
G1 X135.023 Y127.533 E1.98456
G1 X134.109 Y128.002 E2.01873
G1 X133.476 Y128.3 E2.042
G1 X132.535 Y128.689 E2.07587
G1 X131.617 Y129.02 E2.10833
G1 X130.671 Y129.321 E2.14134
G1 X129.725 Y129.563 E2.17382
G1 X128.765 Y129.718 E2.20616
G1 X127.803 Y129.788 E2.23825
G1 X127.111 Y129.787 E2.26126
G1 X124.506 Y129.698 E2.34795
G1 X122.018 Y129.683 E2.43071
G1 X118.365 Y129.782 E2.55225
G1 X117.391 Y129.763 E2.58465
G1 X116.424 Y129.658 E2.617
G1 X115.538 Y129.484 E2.64704
G1 X114.57 Y129.204 E2.68055
G1 X113.781 Y128.932 E2.70831
G1 X113.112 Y128.685 E2.73203
G1 X112.18 Y128.289 E2.76571
G1 X111.14 Y127.788 E2.8041
G1 X110.019 Y127.162 E2.84681
G1 X109.274 Y126.685 E2.87623
G1 X108.169 Y125.874 E2.92182
G1 X107.631 Y125.423 E2.94517
G1 X106.938 Y124.782 E2.97657
G1 X106.047 Y123.772 E3.02136
G1 X105.741 Y123.375 E3.03803
G1 X105.138 Y122.505 E3.07324
G1 X104.85 Y122.037 E3.09152
G1 X104.222 Y120.857 E3.13598
G1 X104.043 Y120.462 E3.1504
G1 X103.681 Y119.558 E3.18279
G1 X103.4 Y118.624 E3.21523
G1 X103.204 Y117.666 E3.24775
G1 X103.132 Y117.206 E3.26324
G1 X103.023 Y116.246 E3.29537
G1 X102.992 Y115.315 E3.32636
G1 X103.02 Y114.274 E3.36099
G1 X103.046 Y113.948 E3.37187
G1 X103.166 Y112.982 E3.40425
G1 X103.373 Y112.023 E3.43688
G1 X103.729 Y110.906 E3.47587
G1 X103.857 Y110.574 E3.4877
G1 X104.43 Y109.326 E3.53338
G1 X104.929 Y108.456 E3.56674
G1 X105.215 Y108.006 E3.58447
G1 X105.769 Y107.216 E3.61656
G1 X106.493 Y106.338 E3.65441
G1 X107.341 Y105.442 E3.69545
G0 F6000 X107.632 Y105.717
G1 F1200 X107.927 Y105.441 E3.70888
G1 X108.613 Y104.853 E3.73893
G1 X109.59 Y104.172 E3.77854
G1 X110.507 Y103.606 E3.81439
G1 X111.106 Y103.264 E3.83733
G1 X111.898 Y102.853 E3.867
G1 X112.463 Y102.58 E3.88788
G1 X113.325 Y102.212 E3.91905
G1 X114.106 Y101.953 E3.94642
G1 X115.445 Y101.565 E3.99278
G1 X116.357 Y101.345 E4.02399
G1 X117.25 Y101.211 E4.05402
G1 X118.215 Y101.152 E4.08618
G1 X118.736 Y101.157 E4.10351
G1 X120.012 Y101.2 E4.14597
G1 X122.614 Y101.252 E4.23253
G1 X125.17 Y101.231 E4.31755
G1 X126.443 Y101.186 E4.35991
G1 X127.162 Y101.172 E4.38383
G1 X128.065 Y101.194 E4.41387
G1 X129.038 Y101.305 E4.44645
G1 X130.209 Y101.561 E4.48631
G1 X131.007 Y101.784 E4.51387
G1 X131.671 Y101.984 E4.53694
G1 X132.555 Y102.295 E4.56811
G1 X133.331 Y102.645 E4.59642
G1 X134.351 Y103.157 E4.63438
G1 X134.957 Y103.486 E4.65731
G1 X135.661 Y103.906 E4.68458
G1 X136.163 Y104.224 E4.70434
G1 X136.932 Y104.761 E4.73554
G1 X137.634 Y105.349 E4.766
G1 X137.925 Y105.615 E4.77911
G1 X138.809 Y106.527 E4.82135
G1 X139.281 Y107.077 E4.84546
G1 X139.86 Y107.815 E4.87666
G1 X140.341 Y108.549 E4.90585
G1 X140.652 Y109.071 E4.92606
G1 X141.102 Y109.913 E4.95781
G1 X141.434 Y110.682 E4.98567
G1 X141.592 Y111.092 E5.00028
G1 X141.89 Y111.983 E5.03153
G1 X142.107 Y112.896 E5.06274
G1 X142.239 Y113.789 E5.09277
G1 X142.297 Y114.907 E5.13
G1 X142.296 Y115.589 E5.15268
G1 X142.252 Y116.523 E5.18378
G1 X142.16 Y117.246 E5.20803
G1 X142.089 Y117.684 E5.22278
G1 X141.897 Y118.604 E5.25404
G1 X141.624 Y119.501 E5.28523
G1 X141.267 Y120.387 E5.317
G1 X141.092 Y120.768 E5.33094
G1 X140.663 Y121.604 E5.3622
G1 X140.137 Y122.432 E5.39482
G1 X139.877 Y122.803 E5.40989
G1 X139.404 Y123.425 E5.43588
G1 X139.127 Y123.761 E5.45036
G1 X138.501 Y124.456 E5.48147
G1 X137.946 Y124.982 E5.50691
G1 X137.492 Y125.382 E5.52703
G1 X136.788 Y125.948 E5.55708
G1 X136.013 Y126.477 E5.58829
G1 X135.384 Y126.869 E5.61294
G1 X134.84 Y127.177 E5.63373
G1 X133.938 Y127.64 E5.66745
G1 X133.323 Y127.93 E5.69007
G1 X132.399 Y128.313 E5.72333
G1 X131.495 Y128.639 E5.7553
G1 X130.571 Y128.934 E5.78756
G1 X129.661 Y129.168 E5.81881
G1 X128.735 Y129.319 E5.85001
G1 X127.804 Y129.388 E5.88106
G1 X127.125 Y129.387 E5.90365
G1 X124.52 Y129.298 E5.99034
G1 X122.009 Y129.283 E6.07386
G1 X118.372 Y129.382 E6.19487
G1 X117.434 Y129.365 E6.22607
G1 X116.501 Y129.265 E6.25728
G1 X115.615 Y129.091 E6.28731
G1 X114.7 Y128.826 E6.319
G1 X113.919 Y128.557 E6.34647
G1 X113.268 Y128.317 E6.36955
G1 X112.353 Y127.929 E6.4026
G1 X111.335 Y127.439 E6.44018
G1 X110.235 Y126.825 E6.48208
G1 X109.49 Y126.348 E6.5115
G1 X108.406 Y125.552 E6.55623
G1 X107.902 Y125.129 E6.57812
G1 X107.238 Y124.517 E6.60815
G1 X106.347 Y123.507 E6.65295
G1 X106.07 Y123.147 E6.66806
G1 X105.467 Y122.277 E6.70326
G1 X105.203 Y121.849 E6.71999
G1 X104.586 Y120.691 E6.76363
G1 X104.414 Y120.313 E6.77744
G1 X104.064 Y119.442 E6.80867
G1 X103.792 Y118.543 E6.8399
G1 X103.599 Y117.604 E6.87179
G1 X103.529 Y117.161 E6.88671
G1 X103.423 Y116.232 E6.9178
G1 X103.392 Y115.326 E6.94796
G1 X103.419 Y114.305 E6.98193
G1 X103.443 Y113.997 E6.9922
G1 X103.557 Y113.066 E7.0234
G1 X103.754 Y112.144 E7.05476
G1 X104.103 Y111.049 E7.09298
G1 X104.221 Y110.741 E7.10395
G1 X104.794 Y109.493 E7.14963
G1 X105.267 Y108.67 E7.1812
G1 X105.543 Y108.235 E7.19833
G1 X106.078 Y107.47 E7.22938
G1 X106.784 Y106.613 E7.26631
G1 X107.632 Y105.717 E7.30734
G0 F6000 X107.923 Y105.992
G1 F1200 X108.187 Y105.745 E7.31937
G1 X108.873 Y105.157 E7.34942
G1 X109.8 Y104.512 E7.38698
G1 X110.706 Y103.953 E7.42239
G1 X111.29 Y103.619 E7.44476
G1 X112.072 Y103.213 E7.47407
G1 X112.621 Y102.948 E7.49435
G1 X113.451 Y102.592 E7.52438
G1 X114.217 Y102.337 E7.55124
G1 X115.539 Y101.954 E7.59701
G1 X116.416 Y101.741 E7.62703
G1 X117.309 Y101.607 E7.65707
G1 X118.211 Y101.552 E7.68712
G1 X118.723 Y101.557 E7.70415
G1 X119.999 Y101.6 E7.74662
G1 X122.609 Y101.652 E7.83344
G1 X125.184 Y101.631 E7.91909
G1 X126.451 Y101.586 E7.96126
G1 X127.152 Y101.572 E7.98458
G1 X128.055 Y101.594 E8.01462
G1 X128.953 Y101.696 E8.04468
G1 X130.101 Y101.946 E8.08376
G1 X130.892 Y102.167 E8.11107
G1 X131.539 Y102.361 E8.13354
G1 X132.391 Y102.66 E8.16357
G1 X133.152 Y103.003 E8.19133
G1 X134.16 Y103.508 E8.22883
G1 X134.752 Y103.83 E8.25125
G1 X135.447 Y104.244 E8.27815
G1 X135.934 Y104.552 E8.29732
G1 X136.675 Y105.068 E8.32735
G1 X137.364 Y105.644 E8.35722
G1 X137.655 Y105.91 E8.37033
G1 X138.506 Y106.788 E8.411
G1 X138.967 Y107.324 E8.43452
G1 X139.525 Y108.034 E8.46455
G1 X139.997 Y108.754 E8.49318
G1 X140.308 Y109.276 E8.51339
G1 X140.735 Y110.072 E8.54344
G1 X141.061 Y110.826 E8.57076
G1 X141.213 Y111.22 E8.58481
G1 X141.501 Y112.076 E8.61484
G1 X141.711 Y112.954 E8.64487
G1 X141.843 Y113.847 E8.67489
G1 X141.897 Y114.906 E8.71016
G1 X141.896 Y115.571 E8.73228
G1 X141.855 Y116.473 E8.76231
G1 X141.765 Y117.182 E8.78608
G1 X141.697 Y117.603 E8.80027
G1 X141.514 Y118.488 E8.83033
G1 X141.253 Y119.352 E8.86034
G1 X140.903 Y120.221 E8.8915
G1 X140.736 Y120.586 E8.90485
G1 X140.325 Y121.39 E8.93489
G1 X139.81 Y122.202 E8.96687
G1 X139.558 Y122.561 E8.98146
G1 X139.095 Y123.171 E9.00693
G1 X138.83 Y123.494 E9.02082
G1 X138.226 Y124.166 E9.05088
G1 X137.682 Y124.682 E9.07581
G1 X137.241 Y125.07 E9.09535
G1 X136.537 Y125.636 E9.12539
G1 X135.801 Y126.138 E9.15503
G1 X135.187 Y126.521 E9.17909
G1 X134.657 Y126.821 E9.19935
G1 X133.767 Y127.278 E9.23263
G1 X133.152 Y127.568 E9.25524
G1 X132.263 Y127.937 E9.28726
G1 X131.373 Y128.258 E9.31872
G1 X130.471 Y128.547 E9.35023
G1 X129.596 Y128.773 E9.38028
G1 X128.705 Y128.92 E9.41032
G1 X127.805 Y128.988 E9.44034
G1 X127.139 Y128.987 E9.46249
G1 X124.534 Y128.898 E9.54918
G1 X122 Y128.883 E9.63347
G1 X118.379 Y128.982 E9.75395
G1 X117.476 Y128.967 E9.78398
G1 X116.578 Y128.872 E9.81402
G1 X115.692 Y128.698 E9.84405
G1 X114.83 Y128.448 E9.8739
G1 X114.057 Y128.182 E9.90109
G1 X113.424 Y127.949 E9.92353
G1 X112.526 Y127.569 E9.95596
G1 X111.53 Y127.09 E9.99272
G1 X110.451 Y126.488 E10.03381
G1 X109.706 Y126.011 E10.06323
G1 X108.643 Y125.23 E10.10711
G1 X108.173 Y124.835 E10.12753
G1 X107.509 Y124.223 E10.15756
G1 X106.664 Y123.262 E10.20012
G1 X106.399 Y122.919 E10.21454
G1 X105.796 Y122.049 E10.24975
G1 X105.556 Y121.661 E10.26492
G1 X104.95 Y120.525 E10.30774
G1 X104.785 Y120.163 E10.32098
G1 X104.447 Y119.326 E10.351
G1 X104.184 Y118.462 E10.38104
G1 X103.994 Y117.541 E10.41232
G1 X103.926 Y117.115 E10.42666
G1 X103.823 Y116.218 E10.45669
G1 X103.792 Y115.336 E10.48605
G1 X103.818 Y114.335 E10.51935
G1 X103.84 Y114.045 E10.52903
G1 X103.948 Y113.149 E10.55904
G1 X104.135 Y112.265 E10.58909
G1 X104.477 Y111.191 E10.62658
G1 X104.585 Y110.907 E10.63669
G1 X105.141 Y109.692 E10.68113
G1 X105.605 Y108.884 E10.71212
G1 X105.871 Y108.464 E10.72866
G1 X106.387 Y107.724 E10.75866
G1 X107.075 Y106.888 E10.79467
G1 X107.923 Y105.992 E10.8357
G1 F2700 E5.8357
;MESH:PenguinModel.obj
G0 F6000 X114.21 Y113.31
G0 X117.265 Y117.637
;TYPE:WALL-INNER
G1 F2700 E10.8357
G1 F1200 X117.671 Y117.794 E10.85018
G1 X118.074 Y118.059 E10.86622
G1 X118.231 Y118.02 E10.8716
G1 X118.537 Y117.546 E10.89037
G1 X118.553 Y117.265 E10.89973
G1 X118.502 Y115.295 E10.96528
G1 X118.453 Y114.202 E11.00167
G1 X118.552 Y113.071 E11.03943
G1 X118.257 Y112.553 E11.05925
G1 X118.06 Y112.647 E11.06651
G1 X117.757 Y112.714 E11.07683
G1 X117.604 Y112.685 E11.08201
G1 X117.439 Y112.804 E11.08878
G1 X117.14 Y112.909 E11.09932
G1 X116.885 Y113.057 E11.10913
G1 X116.782 Y113.074 E11.1126
G1 X116.522 Y113.208 E11.12233
G1 X116.38 Y113.235 E11.12713
G1 X116.282 Y113.345 E11.13203
G1 X115.991 Y113.518 E11.14329
G1 X115.825 Y113.558 E11.14897
G1 X115.717 Y113.697 E11.15483
G1 X115.531 Y113.813 E11.16212
G1 X115.335 Y113.986 E11.17081
G1 X115.173 Y114.194 E11.17958
G1 X115.058 Y114.28 E11.18436
G1 X115.011 Y114.415 E11.18911
G1 X114.823 Y114.676 E11.19981
G1 X114.746 Y114.739 E11.20312
G1 X114.733 Y115.076 E11.21434
G1 X114.701 Y115.408 E11.22543
G1 X114.741 Y115.682 E11.23464
G1 X114.827 Y115.89 E11.24213
G1 X114.968 Y116.057 E11.2494
G1 X114.994 Y116.15 E11.25261
G1 X115.168 Y116.313 E11.26054
G1 X115.216 Y116.436 E11.26493
G1 X115.432 Y116.594 E11.27383
G1 X115.548 Y116.793 E11.28149
G1 X115.659 Y116.796 E11.28519
G1 X115.966 Y117.017 E11.29777
G1 X116.161 Y117.236 E11.30752
G1 X116.337 Y117.221 E11.3134
G1 X116.72 Y117.412 E11.32763
G1 X117.045 Y117.687 E11.34179
G1 X117.265 Y117.637 E11.34929
G0 F6000 X117.298 Y117.54
G0 X118.116 Y117.881
G0 X118.232 Y118.408
;TYPE:WALL-OUTER
G1 F1200 X118.435 Y118.443 E11.35615
G1 X118.931 Y117.674 E11.38658
G1 X118.953 Y117.271 E11.40001
G1 X118.902 Y115.277 E11.46635
G1 X118.853 Y114.161 E11.5035
G1 X118.962 Y112.983 E11.54285
G1 X118.598 Y112.34 E11.56742
G1 X118.441 Y112.012 E11.57952
G1 X118.386 Y111.979 E11.58165
G1 X118.017 Y112.232 E11.59653
G1 X117.706 Y112.313 E11.60722
G1 X117.547 Y112.22 E11.61335
G1 X117.246 Y112.453 E11.62601
G1 X116.959 Y112.519 E11.6358
G1 X116.85 Y112.634 E11.64107
G1 X116.748 Y112.678 E11.64477
G1 X116.645 Y112.65 E11.64832
G1 X116.554 Y112.748 E11.65277
G1 X116.353 Y112.837 E11.66008
G1 X116.184 Y112.822 E11.66572
G1 X116.018 Y113.044 E11.67494
G1 X115.792 Y113.161 E11.68341
G1 X115.608 Y113.146 E11.68955
G1 X115.439 Y113.409 E11.69994
G1 X115.265 Y113.453 E11.70591
G1 X115.155 Y113.638 E11.71307
G1 X115.036 Y113.672 E11.71719
G1 X114.996 Y113.79 E11.72133
G1 X114.897 Y113.905 E11.72638
G1 X114.677 Y114.035 E11.73488
G1 X114.652 Y114.239 E11.74171
G1 X114.536 Y114.397 E11.74823
G1 X114.338 Y114.535 E11.75626
G1 X114.341 Y114.785 E11.76458
G1 X114.295 Y114.865 E11.76765
G1 X114.337 Y115.02 E11.77299
G1 X114.291 Y115.105 E11.7762
G1 X114.336 Y115.252 E11.78131
G1 X114.246 Y115.452 E11.78861
G1 X114.324 Y115.532 E11.79232
G1 X114.349 Y115.625 E11.79553
G1 X114.301 Y115.823 E11.8023
G1 X114.438 Y115.952 E11.80856
G1 X114.439 Y116.138 E11.81475
G1 X114.521 Y116.154 E11.81753
G1 X114.614 Y116.243 E11.82181
G1 X114.644 Y116.442 E11.8285
G1 X114.801 Y116.491 E11.83397
G1 X114.891 Y116.778 E11.84398
G1 X115.015 Y116.774 E11.8481
G1 X115.113 Y116.824 E11.85176
G1 X115.304 Y117.192 E11.86555
G1 X115.492 Y117.175 E11.87183
G1 X115.687 Y117.304 E11.87961
G1 X116.006 Y117.671 E11.89578
G1 X116.245 Y117.619 E11.90392
G1 X116.517 Y117.764 E11.91417
G1 X116.958 Y118.138 E11.9334
G1 X117.19 Y118.044 E11.94173
G1 X117.488 Y118.15 E11.95225
G1 X118.065 Y118.535 E11.97532
G1 X118.232 Y118.408 E11.9823
G0 F6000 X118.06 Y117.62
;TYPE:SKIN
G1 F1200 X117.854 Y117.485 E11.99049
G1 X117.33 Y117.274 E12.00928
G1 X117.149 Y117.302 E12.01537
G1 X116.958 Y117.144 E12.02361
G1 X116.604 Y116.95 E12.03704
G1 X116.34 Y116.892 E12.04603
G1 X116.196 Y116.739 E12.05302
G1 X115.921 Y116.541 E12.06429
G1 X115.775 Y116.472 E12.06966
G1 X115.574 Y116.228 E12.08017
G1 X115.289 Y115.926 E12.09398
G1 X115.11 Y115.631 E12.10546
G1 X115.086 Y115.367 E12.11428
G1 X115.098 Y114.908 E12.12955
G1 X115.279 Y114.673 E12.13941
G1 X115.354 Y114.508 E12.14544
G1 X115.426 Y114.451 E12.1485
G1 X115.68 Y114.162 E12.16129
G1 X115.953 Y113.968 E12.17243
G1 X116.032 Y113.879 E12.17639
G1 X116.138 Y113.847 E12.18007
G1 X116.646 Y113.547 E12.1997
G1 X116.916 Y113.418 E12.20965
G1 X117.123 Y113.351 E12.21689
G1 X117.309 Y113.235 E12.22418
G1 X117.59 Y113.13 E12.23415
G1 X117.694 Y113.068 E12.23818
G1 X117.988 Y113.041 E12.248
G1 X118.1 Y113.005 E12.25191
G1 X118.184 Y113.152 E12.25754
G1 X118.094 Y114.188 E12.29213
G1 X118.143 Y115.316 E12.32968
G1 X118.197 Y117.408 E12.39929
G1 X118.06 Y117.62 E12.40768
G0 F6000 X118.279 Y117.761
G0 X117.292 Y117.585
G0 X116.554 Y117.214
G0 X116.855 Y116.855
G1 F1200 X115.283 Y115.283 E12.48162
G0 F6000 X115.398 Y114.832
G1 F1200 X117.818 Y117.252 E12.59545
G0 F6000 X117.982 Y116.85
